packages/core/src/svgs/tokens/mono/POOLX.svg

<svg width="24" height="24" viewBox="0 0 24 24" fill="none" xmlns="http://www.w3.org/2000/svg">
<path d="M4.31226 17.0313L15.6747 2.34387L16.6623 3.11263L5.30601 17.8001L4.31851 17.0313H4.31226Z" fill="white"/>
<path d="M21.4062 9.89996L8.91872 12.6499L2.375 9.87502L2.8625 8.72498L9.03124 11.35L21.1311 8.6875L21.3999 9.90623L21.4062 9.89996Z" fill="white"/>
<path d="M11.3875 21.1373L15.35 2.69995L16.5687 2.96245L12.6124 21.3998L11.3875 21.1373Z" fill="white"/>
<path fill-rule="evenodd" clip-rule="evenodd" d="M8.13748 3.24999L3.34999 9.48124L5.06873 17.0874L12.0062 20.6L19.0311 17.0874L20.6561 9.49991L15.7687 3.24999H8.13748ZM16.3749 2H7.51872L2 9.18753L3.98124 17.9375L11.9999 22L20.1249 17.9375L22 9.18753L16.3749 2Z" fill="white"/>
<path d="M19.0127 17.9064L7.34399 3.12522L8.32525 2.35022L19.9939 17.1251L19.0127 17.9001V17.9064Z" fill="white"/>
</svg>

<svg xmlns="http://www.w3.org/2000/svg" width="24" height="24" fill="none" viewBox="0 0 24 24">
    <path fill="#fff" d="M4.312 17.031 15.675 2.344l.987.769L5.306 17.8l-.987-.769z"/>
    <path fill="#fff" d="M21.406 9.9 8.92 12.65 2.375 9.875l.487-1.15 6.17 2.625 12.1-2.662.268 1.218z"/>
    <path fill="#fff" d="M11.388 21.137 15.35 2.7l1.219.262L12.612 21.4z"/>
    <path fill="#fff" fill-rule="evenodd" d="M8.137 3.25 3.35 9.481l1.719 7.606 6.937 3.513 7.025-3.513L20.656 9.5 15.77 3.25zM16.375 2H7.519L2 9.188l1.981 8.75L12 22l8.125-4.062L22 9.188z" clip-rule="evenodd"/>
    <path fill="#fff" d="M19.013 17.906 7.344 3.126l.981-.776 11.669 14.775-.981.775z"/>
</svg>
